X: 30111
M: 3/8
L: 1/16
K: D
V: 1 staves=2
d>cd>ef>e | d>cd>ef>d | e>^de>fg>e | =d>cB>AB>c |\
d>cd>ef>d | e>^de>fg>e | (dc)dfe>c | d4 :|
|: a2 |\
a2d'2f2 | d4f2 | e>dc>de>f | g2e2a2 |\
a2d'2f2 | d4f2 | e>de>fg>e | d4 :|
|: A2 |\
V: 2
|: f2 |\
f4d2 | F2A2c2 | E2A2c2 | e2c2f2 |\
f4d2 | F2A2d2 | E2A2G2 | F4 :| \
|: F2 |


